icons/needle-filled.svg

<svg width="24" height="24" viewBox="0 0 24 24" fill="none" xmlns="http://www.w3.org/2000/svg">
<path fill-rule="evenodd" clip-rule="evenodd" d="M18.87 13.2121C19.812 14.1551 19.812 15.0981 18.87 16.0401L18.162 16.7481L19.576 18.1621L20.991 16.7481C21.462 16.2761 21.933 16.2761 22.405 16.7481C22.876 17.2191 22.876 17.6901 22.405 18.1621L18.162 22.4041C17.691 22.8761 17.219 22.8761 16.748 22.4041C16.276 21.9341 16.276 21.4621 16.748 20.9901L18.162 19.5761L16.748 18.1621L16.041 18.8691C15.098 19.8121 14.155 19.8121 13.212 18.8691C11.799 17.4541 8.312 13.9691 6.142 11.7981C5.199 10.8551 5.199 9.91207 6.142 8.96907L6.848 8.26207L2.81 4.24707H5.64L8.264 6.84807L8.971 6.14107C9.914 5.19807 10.856 5.19807 11.799 6.14107L18.87 13.2121ZM8.973 11.8021L10.387 13.2161L11.094 12.5091C11.566 12.0381 11.566 11.5661 11.094 11.0951C10.624 10.6231 10.152 10.6231 9.68 11.0951L8.973 11.8021ZM11.802 14.6301L13.216 16.0451L13.923 15.3371C14.394 14.8671 14.394 14.3951 13.923 13.9231C13.451 13.4521 12.98 13.4521 12.509 13.9231L11.802 14.6301Z" fill="#3A3A47"/>
</svg>

<svg xmlns="http://www.w3.org/2000/svg" width="24" height="24" viewBox="0 0 24 24">
    <path fill="#3A3A47" fill-rule="evenodd" d="M2.81 4.247H5.64l2.624 2.601.707-.707c.943-.943 1.885-.943 2.828 0l7.071 7.071c.943.943.943 1.886 0 2.828l-.707.708 1.414 1.414 1.415-1.414c.471-.472.942-.472 1.414 0 .471.471.471.942 0 1.414l-4.243 4.242c-.471.472-.943.472-1.414 0-.472-.47-.472-.942 0-1.414l1.414-1.414-1.414-1.414-.707.707c-.943.943-1.886.943-2.829 0l-7.07-7.071c-.943-.943-.943-1.886 0-2.829l.706-.707L2.81 4.247zm9.699 9.676l-.707.707 1.414 1.415.707-.708c.471-.47.471-.942 0-1.414-.472-.471-.943-.471-1.414 0zM9.68 11.095l-.707.707 1.414 1.414.707-.707c.472-.471.472-.943 0-1.414-.47-.472-.942-.472-1.414 0z"/>
</svg>
